X:675
T:The hole in the hedge
R:Jig
D:Martin Hayes: Under the Moon
S:Numerous web ABC's
Z:Transcription, chords:Mike Long
M:6/8
L:1/8
K:C
E|\
"C"C2E EDE|"G"GED E2D|"C"C2E EDE|"G"GEC D2E|\
"C"C2E EDE|"G"GEG c2c|"F"cde dcA|"G"GEC D2:|
|:C|\
"C"c2e dcA|"G"GEG GAB|"F/C"c2e dcA|"G"GEC D2C|\
"C"c2e dcA|"G"GEG GAB|"F"cBc AcA|"G"GEC D2:|
